Newaita-dark/apps/48/com.github.kjlaw89.archetype.svg

<svg height="48pt" viewBox="0 0 48 48" width="48pt" xmlns="http://www.w3.org/2000/svg" xmlns:xlink="http://www.w3.org/1999/xlink"><linearGradient id="a" gradientUnits="userSpaceOnUse" x1="23.814782" x2="23.814782" y1="42.0509015" y2="44.03546731253"><stop offset="0" stop-opacity=".27451"/><stop offset="1" stop-opacity="0"/></linearGradient><linearGradient id="b"><stop offset="0" stop-opacity=".313725"/><stop offset=".222222" stop-opacity=".27451"/><stop offset="1" stop-opacity="0"/></linearGradient><radialGradient id="c" cx="450.90894" cy="189.57936" gradientTransform="matrix(.00000026 -.117199 -.210958 -.00000015 80.180536 95.393)" gradientUnits="userSpaceOnUse" r="21.166656" xlink:href="#b"/><radialGradient id="d" cx="450.90894" cy="189.57936" gradientTransform="matrix(-.00000026 .117199 .210958 .00000015 -32.550988 -11.29122)" gradientUnits="userSpaceOnUse" r="21.166656" xlink:href="#b"/><radialGradient id="e" cx="450.90894" cy="189.57936" gradientTransform="matrix(-.00000026 -.117199 .210958 -.00000015 -32.550988 95.393)" gradientUnits="userSpaceOnUse" r="21.166656" xlink:href="#b"/><radialGradient id="f" cx="450.90894" cy="189.57936" gradientTransform="matrix(.00000026 .117199 -.210958 .00000015 80.180534 -11.291221)" gradientUnits="userSpaceOnUse" r="21.166656" xlink:href="#b"/><linearGradient id="g"><stop offset="0" stop-color="#7e57c2"/><stop offset="1" stop-color="#9575cd"/></linearGradient><linearGradient id="h" gradientTransform="matrix(.113024 0 0 .326118 -8.78102 50.462023)" gradientUnits="userSpaceOnUse" x1="306.91666" x2="305.95456" xlink:href="#g" y1="-25.791676" y2="-135.32916"/><linearGradient id="i" gradientTransform="matrix(4.556143 0 0 13.146184 -353.97266 2034.1802)" gradientUnits="userSpaceOnUse" x1="306.91666" x2="305.95456" xlink:href="#g" y1="-25.791676" y2="-135.32916"/><linearGradient id="j" gradientUnits="userSpaceOnUse" x1="333.37491475" x2="333.37491475" y1="-121.04159841667" y2="-89.29164325"><stop offset="0" stop-color="#66bb6a"/><stop offset="1" stop-color="#81c784"/></linearGradient><linearGradient id="k" gradientUnits="userSpaceOnUse" x1="386.29150925" x2="386.29150925" y1="-121.04167558333" y2="-89.29163575"><stop offset="0" stop-color="#ffd54f"/><stop offset="1" stop-color="#ffe082"/></linearGradient><linearGradient id="l" gradientUnits="userSpaceOnUse" x1="439.2083" x2="439.2083" y1="-121.0416835" y2="-89.291686"><stop offset="0" stop-color="#e57373"/><stop offset="1" stop-color="#ef9a9a"/></linearGradient><linearGradient id="m" gradientUnits="userSpaceOnUse" x1="23.814786" x2="23.814786" y1="37.08948837506" y2="17.24383268749"><stop offset="0" stop-color="#bdbdbd"/><stop offset="1" stop-color="#e0e0e0"/></linearGradient><path d="m6.945312 42.050781h33.738282v1.984375h-33.738282zm0 0" fill="url(#a)"/><path d="m40.683594 42.050781h3.96875v-1.984375h-3.96875zm0 0" fill="url(#c)"/><path d="m6.945312 42.050781h-3.96875v1.984375h3.96875zm0 0" fill="url(#d)"/><path d="m6.945312 42.050781h-3.96875v-1.984375h3.96875zm0 0" fill="url(#e)"/><path d="m40.683594 42.050781h3.96875v1.984375h-3.96875zm0 0" fill="url(#f)"/><path d="m4.960938 6.328125h37.707031c1.097656 0 1.984375.890625 1.984375 1.984375v31.753906c0 1.097656-.886719 1.984375-1.984375 1.984375h-37.707031c-1.09375 0-1.984376-.886719-1.984376-1.984375v-31.753906c0-1.09375.890626-1.984375 1.984376-1.984375zm0 0" fill="url(#h)"/><path d="m2.976562 14.265625h41.675782v.992187h-41.675782zm0 0" fill="#0a0d0e" fill-opacity=".235294"/><path d="m4.960938 42.070312c-1.097657 0-1.984376-.886718-1.984376-1.984374v-.515626c0 1.097657.886719 1.984376 1.984376 1.984376h37.707031c1.101562 0 1.984375-.886719 1.984375-1.984376v.515626c0 1.097656-.882813 1.984374-1.984375 1.984374zm0 0" fill-opacity=".235294"/><path d="m199.980905 255.093753c-44.247743 0-79.992362 35.744619-79.992362 79.992362v239.977087h1679.99707v-239.977087c0-44.247743-35.587153-79.992362-79.992362-79.992362zm0 0" fill="url(#i)" stroke="#212121" stroke-linecap="round" stroke-width="11.338583" transform="scale(.0248071)"/><path d="m4.960938 6.441406c-1.097657 0-1.984376.886719-1.984376 1.988282v.515624c0-1.101562.886719-1.984374 1.984376-1.984374h37.707031c1.101562 0 1.984375.882812 1.984375 1.984374v-.515624c0-1.101563-.882813-1.988282-1.984375-1.988282zm0 0" fill="#fff" fill-opacity=".392157"/><path d="m4.960938 6.1875c-1.175782 0-2.125.949219-2.125 2.125v31.753906c0 1.175782.949218 2.125 2.125 2.125h37.707031c1.175781 0 2.125-.949218 2.125-2.125v-31.753906c0-1.175781-.949219-2.125-2.125-2.125zm0 .28125h37.707031c1.023437 0 1.84375.820312 1.84375 1.84375v31.753906c0 1.023438-.820313 1.84375-1.84375 1.84375h-37.707031c-1.023438 0-1.84375-.820312-1.84375-1.84375v-31.753906c0-1.023438.820312-1.84375 1.84375-1.84375zm0 0" fill="#212121"/><g stroke="#212121" stroke-linecap="round"><path d="m333.38483-121.050638c8.749165 0 15.873484 7.124319 15.873484 15.873484 0 8.790827-7.124319 15.873484-15.873484 15.873484-8.790827 0-15.873484-7.082657-15.873484-15.873484 0-8.749165 7.082657-15.873484 15.873484-15.873484zm0 0" fill="url(#j)" stroke-width="3" transform="matrix(.093759 0 0 .093759 0 20.158175)"/><path d="m386.296444-121.050638c8.749164 0 15.873484 7.124319 15.873484 15.873484 0 8.790827-7.12432 15.873484-15.873484 15.873484-8.790827 0-15.873484-7.082657-15.873484-15.873484 0-8.749165 7.082657-15.873484 15.873484-15.873484zm0 0" fill="url(#k)" stroke-width="3" transform="matrix(.093759 0 0 .093759 0 20.158175)"/><path d="m439.208058-121.050638c8.749164 0 15.873484 7.124319 15.873484 15.873484 0 8.790827-7.12432 15.873484-15.873484 15.873484-8.749165 0-15.873484-7.082657-15.873484-15.873484 0-8.749165 7.124319-15.873484 15.873484-15.873484zm0 0" fill="url(#l)" stroke-width="3" transform="matrix(.093759 0 0 .093759 0 20.158175)"/></g><path d="m24.808594 17.246094c-.394532 0-.746094.230468-.90625.585937l-7.9375 17.863281c-.292969.65625.1875 1.390626.902344 1.394532h2.976562c.402344 0 .761719-.242188.917969-.613282l2.226562-5.34375h3.460938l.855469 5.128907c.078124.476562.492187.824219.976562.828125h2.976562c.621094-.003906 1.089844-.570313.972657-1.183594l-3.472657-17.859375c-.09375-.464844-.5-.800781-.972656-.800781zm.496094 3.96875h.496093l.496094 6.945312h-2.480469zm0 0" fill="url(#m)"/><path d="m24.808594 17.367188c-.394532 0-.746094.230468-.90625.589843l-7.9375 17.859375c-.089844.195313-.105469.398438-.070313.589844.015625-.074219.039063-.148438.070313-.21875l7.9375-17.859375c.160156-.359375.511718-.589844.90625-.589844h2.976562c.472656 0 .878906.335938.972656.800781l3.472657 17.863282v.003906c.023437-.121094.023437-.246094 0-.375l-3.472657-17.863281c-.09375-.464844-.5-.800781-.972656-.800781zm-.914063 10.914062-.078125.371094h2.480469l-.027344-.371094zm0 0" fill="#fbfbfb"/><path d="m25.304688 21.351562-1.488282 6.945313h.128906l1.359376-6.328125h.496093l.449219 6.328125h.046875l-.496094-6.945313zm-2.316407 9.921876-2.226562 5.34375c-.15625.371093-.515625.609374-.917969.609374h-2.976562c-.453126 0-.8125-.296874-.941407-.679687-.207031.628906.261719 1.296875.941407 1.296875h2.976562c.402344 0 .761719-.242188.917969-.609375l2.226562-5.34375h3.460938l.855469 5.125c.078124.476563.492187.828125.976562.828125h2.976562c.621094 0 1.089844-.566406.972657-1.179688l-.027344-.132812c-.125.398438-.492187.695312-.945313.695312h-2.976562c-.484375 0-.898438-.351562-.976562-.828124l-.855469-5.125zm0 0" fill-opacity=".235294"/><path d="m1000.061992 695.20921c-15.903993 0-30.075869 9.290452-36.531945 23.619792l-319.969449 720.088724c-11.809896 26.454167 7.558334 56.05764 36.37448 56.215105h119.988543c16.218924 0 30.70573-9.762847 37.004341-24.722049l89.755209-215.412502h139.514238l34.484897 206.751912c3.149305 19.210764 19.840625 33.225174 39.366319 33.382639h119.988544c25.036979-.157465 43.932813-22.989931 39.208854-47.711979l-139.986633-719.93126c-3.779167-18.738368-20.155556-32.280382-39.208855-32.280382zm19.99809 159.984724h19.998091l19.99809 279.973268h-99.990452zm0 0" fill="none" stroke="#212121" stroke-linecap="round" stroke-linejoin="round" stroke-width="11.338583" transform="scale(.0248071)"/></svg>

<?xml version="1.0" encoding="UTF-8"?>
<svg xmlns="http://www.w3.org/2000/svg" xmlns:xlink="http://www.w3.org/1999/xlink" width="48pt" height="48pt" viewBox="0 0 48 48" version="1.1">
<defs>
<linearGradient id="linear0" gradientUnits="userSpaceOnUse" x1="254" y1="233.5" x2="254" y2="254.66667" gradientTransform="matrix(0.093759,0,0,0.093759,-0.00000375036,20.158175)">
<stop offset="0" style="stop-color:rgb(0%,0%,0%);stop-opacity:0.27451;"/>
<stop offset="1" style="stop-color:rgb(0%,0%,0%);stop-opacity:0;"/>
</linearGradient>
<radialGradient id="radial0" gradientUnits="userSpaceOnUse" cx="450.90894" cy="189.57936" fx="450.90894" fy="189.57936" r="21.166656" gradientTransform="matrix(0.000000261256,-0.117199,-0.210958,-0.000000152308,80.180536,95.393)">
<stop offset="0" style="stop-color:rgb(0%,0%,0%);stop-opacity:0.313725;"/>
<stop offset="0.222222" style="stop-color:rgb(0%,0%,0%);stop-opacity:0.27451;"/>
<stop offset="1" style="stop-color:rgb(0%,0%,0%);stop-opacity:0;"/>
</radialGradient>
<radialGradient id="radial1" gradientUnits="userSpaceOnUse" cx="450.90894" cy="189.57936" fx="450.90894" fy="189.57936" r="21.166656" gradientTransform="matrix(-0.000000261256,0.117199,0.210958,0.000000152308,-32.550988,-11.29122)">
<stop offset="0" style="stop-color:rgb(0%,0%,0%);stop-opacity:0.313725;"/>
<stop offset="0.222222" style="stop-color:rgb(0%,0%,0%);stop-opacity:0.27451;"/>
<stop offset="1" style="stop-color:rgb(0%,0%,0%);stop-opacity:0;"/>
</radialGradient>
<radialGradient id="radial2" gradientUnits="userSpaceOnUse" cx="450.90894" cy="189.57936" fx="450.90894" fy="189.57936" r="21.166656" gradientTransform="matrix(-0.000000261256,-0.117199,0.210958,-0.000000152308,-32.550988,95.393)">
<stop offset="0" style="stop-color:rgb(0%,0%,0%);stop-opacity:0.313725;"/>
<stop offset="0.222222" style="stop-color:rgb(0%,0%,0%);stop-opacity:0.27451;"/>
<stop offset="1" style="stop-color:rgb(0%,0%,0%);stop-opacity:0;"/>
</radialGradient>
<radialGradient id="radial3" gradientUnits="userSpaceOnUse" cx="450.90894" cy="189.57936" fx="450.90894" fy="189.57936" r="21.166656" gradientTransform="matrix(0.000000261256,0.117199,-0.210958,0.000000152308,80.180534,-11.291221)">
<stop offset="0" style="stop-color:rgb(0%,0%,0%);stop-opacity:0.313725;"/>
<stop offset="0.222222" style="stop-color:rgb(0%,0%,0%);stop-opacity:0.27451;"/>
<stop offset="1" style="stop-color:rgb(0%,0%,0%);stop-opacity:0;"/>
</radialGradient>
<linearGradient id="linear1" gradientUnits="userSpaceOnUse" x1="306.91666" y1="-25.791676" x2="305.95456" y2="-135.32916" gradientTransform="matrix(0.113024,0,0,0.326118,-8.78102,50.462023)">
<stop offset="0" style="stop-color:rgb(49.411765%,34.117647%,76.078431%);stop-opacity:1;"/>
<stop offset="1" style="stop-color:rgb(58.431373%,45.882353%,80.392157%);stop-opacity:1;"/>
</linearGradient>
<linearGradient id="linear2" gradientUnits="userSpaceOnUse" x1="306.91666" y1="-25.791676" x2="305.95456" y2="-135.32916" gradientTransform="matrix(4.556143,0,0,13.146184,-353.97266,2034.1802)">
<stop offset="0" style="stop-color:rgb(49.411765%,34.117647%,76.078431%);stop-opacity:1;"/>
<stop offset="1" style="stop-color:rgb(58.431373%,45.882353%,80.392157%);stop-opacity:1;"/>
</linearGradient>
<linearGradient id="linear3" gradientUnits="userSpaceOnUse" x1="349.25" y1="-158.08333" x2="349.25" y2="-115.75" gradientTransform="matrix(0.749999,0,0,0.749999,71.437764,-2.479259)">
<stop offset="0" style="stop-color:rgb(40%,73.333333%,41.568627%);stop-opacity:1;"/>
<stop offset="1" style="stop-color:rgb(50.588235%,78.039216%,51.764706%);stop-opacity:1;"/>
</linearGradient>
<linearGradient id="linear4" gradientUnits="userSpaceOnUse" x1="349.25" y1="-158.08333" x2="349.25" y2="-115.75" gradientTransform="matrix(0.750001,0,0,0.750001,124.35366,-2.47902)">
<stop offset="0" style="stop-color:rgb(100%,83.529412%,30.980392%);stop-opacity:1;"/>
<stop offset="1" style="stop-color:rgb(100%,87.843137%,50.980392%);stop-opacity:1;"/>
</linearGradient>
<linearGradient id="linear5" gradientUnits="userSpaceOnUse" x1="349.25" y1="-158.08333" x2="349.25" y2="-115.75" gradientTransform="matrix(0.75,0,0,0.75,177.2708,-2.479186)">
<stop offset="0" style="stop-color:rgb(89.803922%,45.098039%,45.098039%);stop-opacity:1;"/>
<stop offset="1" style="stop-color:rgb(93.72549%,60.392157%,60.392157%);stop-opacity:1;"/>
</linearGradient>
<linearGradient id="linear6" gradientUnits="userSpaceOnUse" x1="254" y1="180.58334" x2="254" y2="-31.083334" gradientTransform="matrix(0.093759,0,0,0.093759,0,20.158175)">
<stop offset="0" style="stop-color:rgb(74.117647%,74.117647%,74.117647%);stop-opacity:1;"/>
<stop offset="1" style="stop-color:rgb(87.843137%,87.843137%,87.843137%);stop-opacity:1;"/>
</linearGradient>
</defs>
<g id="surface1">
<path style=" stroke:none;fill-rule:nonzero;fill:url(#linear0);" d="M 6.945312 42.050781 L 40.683594 42.050781 L 40.683594 44.035156 L 6.945312 44.035156 Z M 6.945312 42.050781 "/>
<path style=" stroke:none;fill-rule:nonzero;fill:url(#radial0);" d="M 40.683594 42.050781 L 44.652344 42.050781 L 44.652344 40.066406 L 40.683594 40.066406 Z M 40.683594 42.050781 "/>
<path style=" stroke:none;fill-rule:nonzero;fill:url(#radial1);" d="M 6.945312 42.050781 L 2.976562 42.050781 L 2.976562 44.035156 L 6.945312 44.035156 Z M 6.945312 42.050781 "/>
<path style=" stroke:none;fill-rule:nonzero;fill:url(#radial2);" d="M 6.945312 42.050781 L 2.976562 42.050781 L 2.976562 40.066406 L 6.945312 40.066406 Z M 6.945312 42.050781 "/>
<path style=" stroke:none;fill-rule:nonzero;fill:url(#radial3);" d="M 40.683594 42.050781 L 44.652344 42.050781 L 44.652344 44.035156 L 40.683594 44.035156 Z M 40.683594 42.050781 "/>
<path style=" stroke:none;fill-rule:nonzero;fill:url(#linear1);" d="M 4.960938 6.328125 L 42.667969 6.328125 C 43.765625 6.328125 44.652344 7.21875 44.652344 8.3125 L 44.652344 40.066406 C 44.652344 41.164062 43.765625 42.050781 42.667969 42.050781 L 4.960938 42.050781 C 3.867188 42.050781 2.976562 41.164062 2.976562 40.066406 L 2.976562 8.3125 C 2.976562 7.21875 3.867188 6.328125 4.960938 6.328125 Z M 4.960938 6.328125 "/>
<path style=" stroke:none;fill-rule:nonzero;fill:rgb(3.921569%,5.098039%,5.490196%);fill-opacity:0.235294;" d="M 2.976562 14.265625 L 44.652344 14.265625 L 44.652344 15.257812 L 2.976562 15.257812 Z M 2.976562 14.265625 "/>
<path style=" stroke:none;fill-rule:nonzero;fill:rgb(0%,0%,0%);fill-opacity:0.235294;" d="M 4.960938 42.070312 C 3.863281 42.070312 2.976562 41.183594 2.976562 40.085938 L 2.976562 39.570312 C 2.976562 40.667969 3.863281 41.554688 4.960938 41.554688 L 42.667969 41.554688 C 43.769531 41.554688 44.652344 40.667969 44.652344 39.570312 L 44.652344 40.085938 C 44.652344 41.183594 43.769531 42.070312 42.667969 42.070312 Z M 4.960938 42.070312 "/>
<path style="fill-rule:nonzero;fill:url(#linear2);stroke-width:11.338583;stroke-linecap:round;stroke-linejoin:miter;stroke:rgb(12.941176%,12.941176%,12.941176%);stroke-opacity:1;stroke-miterlimit:4;" d="M 199.980905 255.093753 C 155.733162 255.093753 119.988543 290.838372 119.988543 335.086115 L 119.988543 575.063202 L 1799.985613 575.063202 L 1799.985613 335.086115 C 1799.985613 290.838372 1764.39846 255.093753 1719.993251 255.093753 Z M 199.980905 255.093753 " transform="matrix(0.0248071,0,0,0.0248071,0,0)"/>
<path style=" stroke:none;fill-rule:nonzero;fill:rgb(100%,100%,100%);fill-opacity:0.392157;" d="M 4.960938 6.441406 C 3.863281 6.441406 2.976562 7.328125 2.976562 8.429688 L 2.976562 8.945312 C 2.976562 7.84375 3.863281 6.960938 4.960938 6.960938 L 42.667969 6.960938 C 43.769531 6.960938 44.652344 7.84375 44.652344 8.945312 L 44.652344 8.429688 C 44.652344 7.328125 43.769531 6.441406 42.667969 6.441406 Z M 4.960938 6.441406 "/>
<path style=" stroke:none;fill-rule:nonzero;fill:rgb(12.941176%,12.941176%,12.941176%);fill-opacity:1;" d="M 4.960938 6.1875 C 3.785156 6.1875 2.835938 7.136719 2.835938 8.3125 L 2.835938 40.066406 C 2.835938 41.242188 3.785156 42.191406 4.960938 42.191406 L 42.667969 42.191406 C 43.84375 42.191406 44.792969 41.242188 44.792969 40.066406 L 44.792969 8.3125 C 44.792969 7.136719 43.84375 6.1875 42.667969 6.1875 Z M 4.960938 6.46875 L 42.667969 6.46875 C 43.691406 6.46875 44.511719 7.289062 44.511719 8.3125 L 44.511719 40.066406 C 44.511719 41.089844 43.691406 41.910156 42.667969 41.910156 L 4.960938 41.910156 C 3.9375 41.910156 3.117188 41.089844 3.117188 40.066406 L 3.117188 8.3125 C 3.117188 7.289062 3.9375 6.46875 4.960938 6.46875 Z M 4.960938 6.46875 "/>
<path style="fill-rule:nonzero;fill:url(#linear3);stroke-width:3;stroke-linecap:round;stroke-linejoin:miter;stroke:rgb(12.941176%,12.941176%,12.941176%);stroke-opacity:1;stroke-miterlimit:4;" d="M 333.38483 -121.050638 C 342.133995 -121.050638 349.258314 -113.926319 349.258314 -105.177154 C 349.258314 -96.386327 342.133995 -89.30367 333.38483 -89.30367 C 324.594003 -89.30367 317.511346 -96.386327 317.511346 -105.177154 C 317.511346 -113.926319 324.594003 -121.050638 333.38483 -121.050638 Z M 333.38483 -121.050638 " transform="matrix(0.093759,0,0,0.093759,0,20.158175)"/>
<path style="fill-rule:nonzero;fill:url(#linear4);stroke-width:3;stroke-linecap:round;stroke-linejoin:miter;stroke:rgb(12.941176%,12.941176%,12.941176%);stroke-opacity:1;stroke-miterlimit:4;" d="M 386.296444 -121.050638 C 395.045608 -121.050638 402.169928 -113.926319 402.169928 -105.177154 C 402.169928 -96.386327 395.045608 -89.30367 386.296444 -89.30367 C 377.505617 -89.30367 370.42296 -96.386327 370.42296 -105.177154 C 370.42296 -113.926319 377.505617 -121.050638 386.296444 -121.050638 Z M 386.296444 -121.050638 " transform="matrix(0.093759,0,0,0.093759,0,20.158175)"/>
<path style="fill-rule:nonzero;fill:url(#linear5);stroke-width:3;stroke-linecap:round;stroke-linejoin:miter;stroke:rgb(12.941176%,12.941176%,12.941176%);stroke-opacity:1;stroke-miterlimit:4;" d="M 439.208058 -121.050638 C 447.957222 -121.050638 455.081542 -113.926319 455.081542 -105.177154 C 455.081542 -96.386327 447.957222 -89.30367 439.208058 -89.30367 C 430.458893 -89.30367 423.334574 -96.386327 423.334574 -105.177154 C 423.334574 -113.926319 430.458893 -121.050638 439.208058 -121.050638 Z M 439.208058 -121.050638 " transform="matrix(0.093759,0,0,0.093759,0,20.158175)"/>
<path style=" stroke:none;fill-rule:nonzero;fill:url(#linear6);" d="M 24.808594 17.246094 C 24.414062 17.246094 24.0625 17.476562 23.902344 17.832031 L 15.964844 35.695312 C 15.671875 36.351562 16.152344 37.085938 16.867188 37.089844 L 19.84375 37.089844 C 20.246094 37.089844 20.605469 36.847656 20.761719 36.476562 L 22.988281 31.132812 L 26.449219 31.132812 L 27.304688 36.261719 C 27.382812 36.738281 27.796875 37.085938 28.28125 37.089844 L 31.257812 37.089844 C 31.878906 37.085938 32.347656 36.519531 32.230469 35.90625 L 28.757812 18.046875 C 28.664062 17.582031 28.257812 17.246094 27.785156 17.246094 Z M 25.304688 21.214844 L 25.800781 21.214844 L 26.296875 28.160156 L 23.816406 28.160156 Z M 25.304688 21.214844 "/>
<path style=" stroke:none;fill-rule:nonzero;fill:rgb(98.431373%,98.431373%,98.431373%);fill-opacity:1;" d="M 24.808594 17.367188 C 24.414062 17.367188 24.0625 17.597656 23.902344 17.957031 L 15.964844 35.816406 C 15.875 36.011719 15.859375 36.214844 15.894531 36.40625 C 15.910156 36.332031 15.933594 36.257812 15.964844 36.1875 L 23.902344 18.328125 C 24.0625 17.96875 24.414062 17.738281 24.808594 17.738281 L 27.785156 17.738281 C 28.257812 17.738281 28.664062 18.074219 28.757812 18.539062 L 32.230469 36.402344 C 32.230469 36.402344 32.230469 36.402344 32.230469 36.40625 C 32.253906 36.285156 32.253906 36.160156 32.230469 36.03125 L 28.757812 18.167969 C 28.664062 17.703125 28.257812 17.367188 27.785156 17.367188 Z M 23.894531 28.28125 L 23.816406 28.652344 L 26.296875 28.652344 L 26.269531 28.28125 Z M 23.894531 28.28125 "/>
<path style=" stroke:none;fill-rule:nonzero;fill:rgb(0%,0%,0%);fill-opacity:0.235294;" d="M 25.304688 21.351562 L 23.816406 28.296875 L 23.945312 28.296875 L 25.304688 21.96875 L 25.800781 21.96875 L 26.25 28.296875 L 26.296875 28.296875 L 25.800781 21.351562 Z M 22.988281 31.273438 L 20.761719 36.617188 C 20.605469 36.988281 20.246094 37.226562 19.84375 37.226562 L 16.867188 37.226562 C 16.414062 37.226562 16.054688 36.929688 15.925781 36.546875 C 15.71875 37.175781 16.1875 37.84375 16.867188 37.84375 L 19.84375 37.84375 C 20.246094 37.84375 20.605469 37.601562 20.761719 37.234375 L 22.988281 31.890625 L 26.449219 31.890625 L 27.304688 37.015625 C 27.382812 37.492188 27.796875 37.84375 28.28125 37.84375 L 31.257812 37.84375 C 31.878906 37.84375 32.347656 37.277344 32.230469 36.664062 L 32.203125 36.53125 C 32.078125 36.929688 31.710938 37.226562 31.257812 37.226562 L 28.28125 37.226562 C 27.796875 37.226562 27.382812 36.875 27.304688 36.398438 L 26.449219 31.273438 Z M 22.988281 31.273438 "/>
<path style="fill:none;stroke-width:11.338583;stroke-linecap:round;stroke-linejoin:round;stroke:rgb(12.941176%,12.941176%,12.941176%);stroke-opacity:1;stroke-miterlimit:4;" d="M 1000.061992 695.20921 C 984.157999 695.20921 969.986123 704.499662 963.530047 718.829002 L 643.560598 1438.917726 C 631.750702 1465.371893 651.118932 1494.975366 679.935078 1495.132831 L 799.923621 1495.132831 C 816.142545 1495.132831 830.629351 1485.369984 836.927962 1470.410782 L 926.683171 1254.99828 L 1066.197409 1254.99828 L 1100.682306 1461.750192 C 1103.831611 1480.960956 1120.522931 1494.975366 1140.048625 1495.132831 L 1260.037169 1495.132831 C 1285.074148 1494.975366 1303.969982 1472.1429 1299.246023 1447.420852 L 1159.25939 727.489592 C 1155.480223 708.751224 1139.103834 695.20921 1120.050535 695.20921 Z M 1020.060082 855.193934 L 1040.058173 855.193934 L 1060.056263 1135.167202 L 960.065811 1135.167202 Z M 1020.060082 855.193934 " transform="matrix(0.0248071,0,0,0.0248071,0,0)"/>
</g>
</svg>
